!!!COM: Scriabin, Alexander
!!!OTL@@FR: Prélude en mi mineur
!!!OTL@@EN: Prelude in E Minor
!!!OPR@@FR: 24 Préludes
!!!OPR@@EN: 24 Preludes
!!!OPS: 11
!!!ONM: 4
!!!ODT: 1888
!!!AGN: Prelude
!!!OMD: Lento [quarter] = 72-80
**kern	**kern	**dynam
*ICklav	*ICklav	*
*IGsolo	*IGsolo	*
*Ipiano	*Ipiano	*
*lh	*rh	*
*clefF4	*clefG2	*
*k[f#]	*k[f#]	*
*e:	*e:	*
*M3/2	*M3/2	*
*MM80	*MM80	*
*clefG2	*	*
4r	4b
.p	8r
4b	.
(8a~	.
.	8g#~L
4b 4ee	.
8gn~J	.
.	*	*^	*
2g	4b 4dd#	[2.bb~
.	.
4b 4dd#	.
.	[4g~
4b 4dd#	.
.	=2	=2	=2	=2
8g]L	4b 4ee	4bb]
>	8f#
.	.
.	8e
4b 4ee	4gg
.	8dnJ
.	.
.	12dL
4a# 4ee	4ff#
]]	12.c#
.	.
.	24F#J
.	.
.	[2.f#
4r	4ryy
.	.
4e 4a#	(4ddn'
pp	.
4e 4a#	4cc#'
.	=3	=3	=3	=3
4f#])	4e 4b	4b')
.	8r
4f# 4b	4raa
.	*clefF4	*	*	*
(8e~	.	.
.	8d#~L
4f# 4b	4raa
.	8dn~J
.	.
.	2d
4f# 4a#	[2.ff#~
.	.
4f# 4a#	.
.	[4d~
4f# 4a#	.
.	!!LO:LB:g=original
=4	=4	=4	=4
8d]L	4f# 4b	4ff#]
.	8c#
.	.
.	8B
4f# 4b	4dd
.	8AJ
.	.
.	12AL
4e# 4b	4cc#
.	12.G#
.	.
.	24C#J
.	.
.	[2.c#
4r	4ryy
.	.
4B 4e#	(4a'
.	.
4B 4e#	4g#'
.	=5	=5	=5	=5
4.c#])	4B 4en	4gn')
.	.
4G 4B	4rdd
<	(<8E
.	.
.	8DL
4G 4B	(4e
<	[8C#J
.	.
.	*^	*	*	*
2C#]	4B
4G 4e	2g
[	.	4rc
4B 4e	.
.	4D)	4rc
4B 4f#	4f#
.	*v	*v	*	*	*
=6	=6	=6	=6
4.D#	4A 4cn	2f#)
.	.
4A 4c	.
.	(<8F#
.	.
.	8EL
4A 4c	(4f#
<	[<8D#J
.	.
.	*^	*	*	*
2D#]	4c
4A 4f#	2a
[	.	4rc
4c 4f#	.
.	4E)	4rc
4c 4g	4g
.	*v	*v	*	*	*
*	*v	*v	*
=7	=7	=7
2.E#
4B 4dn 4g
.
.
4d 4g 4cc#
.
.
4d 4g 4b
.
2.F#
4c# 4f# 4a#
<
.
4en 4a# 4dd
.
.
4e 4a# 4cc#
[[
!!LO:LB:g=original
=8	=8	=8
2.B
4e 4an 4ccn
mf
.
4d# 4a 4b
>
.
4a 4dd#
.
[2.B
4a 4dd# 4gg
.
.
4a 4dd# 4ff#
.
.
4a 4dd# 4gg
]]
=9	=9	=9
4.B]
4a 4ee)
.
.
4b 4ee
p
*clefG2	*	*
(8a~
.
.
8g#~L
4b 4ee
.
8gn~J
.
.
*	*^	*
2g	4b 4dd#	[2.bb
.	.
4b 4dd#	.
.	[4g~
4b 4dd#	.
.	=10	=10	=10	=10
8g]L	4b 4ee	4bb]
>	8f#
.	.
.	8e
4b 4ee	4gg
.	8dnJ
.	.
.	12dL
4a# 4ee	4ff#
.	12.c#
.	.
.	24F#J
.	.
]	[2.f#
4r	4ryy
.	.
4e 4a#	(4ddn'
pp	.
4e 4a#	4cc#'
.	=11	=11	=11	=11
4f#])	4e 4b	4b')
.	8r
4f# 4b	4raa
.	*clefF4	*	*	*
(8e~	.	.
.	8d#~L
4f# 4b	4raa
.	8dn~J
.	.
.	2d
4f# 4a#	[2.ff#
.	.
4f# 4a#	.
.	[4d~
4f# 4a#	.
.	!!LO:LB:g=original
=12	=12	=12	=12
8d]L	4f# 4b	4ff#]
>	8c#
.	.
.	8B
4f# 4b	4dd
.	8AJ
.	.
.	12AL
4e# 4b	4cc#
.	12.G#
.	.
.	24C#J
.	.
]	[2.c#
4r	4ryy
.	.
4B 4e#	(4a'
.	.
4B 4e#	4g#'
.	=13	=13	=13	=13
4c#])	4B 4en	4gn')
.	8r
4G 4B	4rdd
.	(<8E
.	.
.	8DL
4G 4B	(4e
<	[8C#J
.	.
.	*^	*	*	*
2C#]	4B
4G 4e	2g
[	.	4rc
4B 4e	.
.	4D	4rc
4B 4f#	4f#
.	*v	*v	*	*	*
=14	=14	=14	=14
4.D#)	4A 4cn	2f#)
.	.
4A 4c	.
.	(<8F#
.	.
.	8EL
4A 4c	(4f#
<	[<8D#J
.	.
.	*^	*	*	*
2D#]	4c
4A 4f#	2a
[	.	4rc
4c 4f#	.
.	4E)	4rc
4c 4g	4g)
.	*v	*v	*	*	*
=15	=15	=15	=15
4r	4r	4ryy
.	8r
4r	4ryy
.	(<8B
.	.
pp	8AL
4dn 4fn	(4b
.	[<8G#J
.	.
.	*^	*	*	*
2.G#]	2.fn
4d 4b	2dd
.	.	.
4d 4b	.
.	.	.
4d 4b	4dd
.	*v	*v	*	*	*
!!LO:LB:g=original
=16	=16	=16	=16
[2.fn [2.A	4a~	2.d 2.dd
.	.
4a~	.
>	.
4a~	.
.	2.fn] 2.A])
4a~	2.c 2.cc)
.	.
4a~	.
.	.
4a~	.
]	=17	=17	=17	=17
2r	2r	2ryy
.	4r
4r	4ryy
.	2.A#
4g	2.e 2.cc
pp	.
4g	.
.	.
4g	.
.	*	*v	*v	*
=18	=18	=18
4B	2.e 2.g 2.b
.	4B
.	.
[4B	.
.	2.B]
2r	.
.	4r
.	=19	=19	=19
*	*^	*
2.BB 2.A	4B	2.d# 2.b
.	.	4B	.
.	.	[4B	.
.	2r	2.B]	2r
.	4r	.	4r
.	!!LO:LB:g=original	=20	=20	=20	=20
*	*	*	*^
4.EE 4.BB 4.G	4B	2.e 2.b	.	.
.	4B	.	.	.
!	!	!	!	!LO:HP:b=2
(8A	.	.	<	.
8G#L	4B	.	.	<
8GnJ	.	.	.	.
2G~	4B	2.d# 2.b	[	[
.	4B	.	.	>
[4BB	4B	.	.	]]
=21	=21	=21	=21	=21
4.EE 4.BB] 4.G)	4B	2.e 2.b	.	.
.	4B	.	.	.
!	!	!	!	!LO:HP:b=2
(8A	.	.	<	.
8G#L	4B	.	.	<
8GnJ	.	.	.	.
2G~	4B	2.d# 2.b	[	[
.	4B	.	.	>
[4BB	4B	.	.	]]
*	*	*	*v	*v
=22	=22	=22	=22
2.EE 2.BB] 2.G)	4B	2.e 2.b
.	.	4B	.
.	.	[4B	.
.	2r	2.B]	2r
ppp	4r	.	4r
.	=23	=23	=23	=23
2.EE 2.BB 2.G	4B	2.e 2.b
.	.	4B	.
.	.	[4B	.
.	2r	2.B]	2r
.	4r	.	4r
.	*	*v	*v	*
=24	=24	=24
4EEE	1.r	.
4r	.	.
4r	.	.
2r	.	.
4r	.	.
==	==	==
*-	*-	*-
!!!system-decoration: {(*)}
!!!RDF**kern: > = above
!!!RDF**kern: < = below
!!!PPP: Ausgewählte Klavierwerke, Band 2 (pp.11-45). Leipzig: Edition Peters, No.9077, 1967. Plate E.P. 12359.
!!!URL-pdf: https://vmirror.imslp.org/files/imglnks/usimg/6/63/IMSLP75863-PMLP09363-Scriabin_Ausgewaehlte_Klavierwerke_Band_2_Peters_Op_11_scan.pdf#page=16 Leipzig: Edition Peters, No.9077, 1967
!!!ENC: Craig Stuart Sapp
!!!END: 2004/04/03
!!!EED: Craig Stuart Sapp
!!!EEV: 2023/02/20
